!!!COM: Ernest Chausson
!!!CNT: Francais
!!!TXO: Francais
!!!OTL: "Serre d'ennui"
!!!LYR: Maeterlinck
!!!OPR: Serres chaude
!!!OPS: Op. 24
!!!ONM: No. 2
!!!ENC: Emily Thomas
!!!YOR: CD Sheet Music French Art Songs, The Ultimate Collection
!!!YOR: CD Sheet Music, LLC 2003
!!!ODT: 1893/
!!NB: Vocal melody and text encoded.
**kern	**silbe
=1	=1
*clefG2	*
*k[f#]	*
*M4/4	*
*MM[Mode/re/]	*
2r	.
4r	.
{[4ee	{O
=2	=2
2ee_	|
8ee]	|
8dd	cet
8cc	en-
8dd	-nui
=3	=3
2b	bleu
4.a	dans
8a	le
=4	=4
[2g	coeur!
4g]}	|}
4r	.
=5	=5
8r	.
{8b-	A-
8b-	-vec
8b-	la
8bn	vi-
8bn	-si-
8bn	-on
8bn	meil-
=6	=6
4.cc#	-leu-
8cc#	-re,
8ccn	Dans
8ccn	le
8dd	clair
8ee	de
=7	=7
2ee	lu-
4dd	-ne
4cc	qui
=8	=8
2cc	pleu-
4fn}	-re,}
4r	.
=9	=9
{4a	{De
4a	mes
4.b-	re^-
8g-	-ves
=10	=10
2an	bleus
4.gn	de
8f#	lan-
=11	=11
2fn}	-gueur!}
2r	.
=12	=12
4r	.
{4e#	{Cet
4f#	en-
4g#	-nui
=13	=13
2g#	bleu
4g#	com-
8a#	-me
8b	la
=14	=14
4cc#	ser-
4d#}	-re,}
8r	.
{8f#	{Ou\-
8g#	l'on
8a	voit
=15	=15
4.b	clo-
8b	-ses
8r	.
4ccn	a\
8ccn	tra-
=16	=16
4ffn	-vers
8ee	Les
8dd	vi-
4ccn	-tra-
8b	-ges
8a	pro-
=17	=17
4.b	-fonds
8g	et
2g}	verts,}
=18	=18
4r	.
{4g	{Cou=
4g	-ver-
8a	-tes
8b-	de
=19	=19
2b-	lune
4a	et
4g	de
=20	=20
2.a	ver-
4d#}	-re}
=21	=21
4r	.
{4b	{Les
4.ee	gran-
8ee	-des
=22	=22
4dd	ve/-
4dd	-ge/-
4.cc	-ta-
8cc	-ti-
=23	=23
[2b	-ons
8b]	|
4cc	Dont
8dd	l'ou-
=24	=24
4cc	-bli
4b	noc-
[4a	-tur-
12a]	|
12g	-ne
12a	s'al-
=25	=25
2b	-lon-
4f#}	-ge,}
4r	.
=26	=26
{4dd	{Im-
4b	-mo-
4g#	-bi-
4f#	-le-
=27	=27
1a}	-ment}
=28	=28
4r	.
{2cc	{Comme
4e	un
=29	=29
2.g	son-
4g}	-ge}
=30	=30
2r	.
{4b-	{Sur
4d	les
=31	=31
4.fn	ro-
8fn	-ses
6f#	des
6g#	pas-
6f#	-si-
=32	=32
1cc#}	-ons.}
=33	=33
{4.ee	{Ou\
8ee	de
4dd	l'eau
4cc	tre\s
=34	=34
2b	len-
4a	-te
4a	s'e/-
=35	=35
2g	-le\-
4g}	-ve}
4r	.
=36	=36
{8b-	{En
8b-	me/-
8a	-lant
8b-	la
4bn	lune
8bn	et
8bn	le
=37	=37
2cc#}	ciel}
8r	.
{8ccn	{En
8g	un
8a	san-
=38	=38
2b	-glot
[2e	glauque
=39	=39
4e_	|
8e]}	|}
8r	.
{4f	{e/-
4g	-ter-
=40	=40
[2g	-nel
4g]}	|}
4r	.
=41	=41
8r	.
{4dd#	{Mo-
4b#	-no-
4b#	-to-
8a#	-ne-
=42	=42
1cc#}	-ment}
=43	=43
4r	.
{2ee	{comme
4g#	un
=44	=44
[1b	re^-
=45	=45
2b]	|
2B}	-ve.}
==	==
*-	*-
